X: 40445
T: Tom Rae
R: reel
M: 4/4
K: Adorian
B,|A,2AF EDEC|B,DGE DB,G,B,|A,2AF EDEC|
B,GDB, A,/A,/A A,B,|A,2AF EDEC|B,DGE DB,G,B,|
EA,CB, A,CEC|B,GDB, A,/A,/A, A,|d|ceAe ceac|
Bdgd BGGe|ceAe ceac|BgdB AAAe|
ceAe ceac|Bdgd BGGB|cABG AEGD|EGDB, A,/A,./A, A,||

